icons/solid/document-check.svg

<svg width="24" height="24" viewBox="0 0 24 24" fill="none" xmlns="http://www.w3.org/2000/svg">
<path fill-rule="evenodd" clip-rule="evenodd" d="M9 1.5H5.625C4.58947 1.5 3.75 2.33947 3.75 3.375V20.625C3.75 21.6605 4.58947 22.5 5.625 22.5H18.375C19.4105 22.5 20.25 21.6605 20.25 20.625V12.75C20.25 10.6789 18.5711 9 16.5 9H14.625C13.5895 9 12.75 8.16053 12.75 7.125V5.25C12.75 3.17893 11.0711 1.5 9 1.5ZM15.6103 12.4359C15.8511 12.0989 15.773 11.6305 15.4359 11.3897C15.0989 11.1489 14.6305 11.227 14.3897 11.5641L11.1543 16.0936L9.53033 14.4697C9.23744 14.1768 8.76256 14.1768 8.46967 14.4697C8.17678 14.7626 8.17678 15.2374 8.46967 15.5303L10.7197 17.7803C10.8756 17.9362 11.0921 18.0156 11.3119 17.9974C11.5316 17.9793 11.7322 17.8653 11.8603 17.6859L15.6103 12.4359Z" fill="#0F172A"/>
<path d="M12.9712 1.8159C13.768 2.73648 14.25 3.93695 14.25 5.25V7.125C14.25 7.33211 14.4179 7.5 14.625 7.5H16.5C17.8131 7.5 19.0135 7.98204 19.9341 8.77881C19.0462 5.37988 16.3701 2.70377 12.9712 1.8159Z" fill="#0F172A"/>
</svg>

<svg xmlns="http://www.w3.org/2000/svg" viewBox="0 0 24 24" fill="currentColor" aria-hidden="true" data-slot="icon">
  <path fill-rule="evenodd" d="M9 1.5H5.625c-1.036 0-1.875.84-1.875 1.875v17.25c0 1.035.84 1.875 1.875 1.875h12.75c1.035 0 1.875-.84 1.875-1.875V12.75A3.75 3.75 0 0 0 16.5 9h-1.875a1.875 1.875 0 0 1-1.875-1.875V5.25A3.75 3.75 0 0 0 9 1.5Zm6.61 10.936a.75.75 0 1 0-1.22-.872l-3.236 4.53L9.53 14.47a.75.75 0 0 0-1.06 1.06l2.25 2.25a.75.75 0 0 0 1.14-.094l3.75-5.25Z" clip-rule="evenodd"/>
  <path d="M12.971 1.816A5.23 5.23 0 0 1 14.25 5.25v1.875c0 .207.168.375.375.375H16.5a5.23 5.23 0 0 1 3.434 1.279 9.768 9.768 0 0 0-6.963-6.963Z"/>
</svg>
